packages/components/svg/solid/translate.svg

<svg width="24" height="24" viewBox="0 0 24 24" fill="none" xmlns="http://www.w3.org/2000/svg">
  <path fill-rule="evenodd" clip-rule="evenodd"
    d="M8.00026 3C8.55255 3 9.00026 3.44772 9.00026 4V5H12.0003C12.5525 5 13.0003 5.44772 13.0003 6C13.0003 6.55228 12.5525 7 12.0003 7H11.3727C11.0603 8.91166 10.444 10.5244 9.43746 11.8188C10.1884 12.3437 11.1113 12.7471 12.2428 13.0299C12.7786 13.1639 13.1044 13.7068 12.9704 14.2426C12.8365 14.7784 12.2936 15.1042 11.7578 14.9702C10.2969 14.605 9.04102 14.0424 8.0002 13.245C6.9594 14.0424 5.70353 14.6049 4.24277 14.9701C3.70698 15.1041 3.16404 14.7783 3.03009 14.2425C2.89615 13.7067 3.22191 13.1638 3.7577 13.0299C4.88916 12.747 5.81207 12.3436 6.56298 11.8188C5.55648 10.5244 4.94023 8.91163 4.62781 7H4.00026C3.44798 7 3.00026 6.55228 3.00026 6C3.00026 5.44772 3.44798 5 4.00026 5H7.00026V4C7.00026 3.44772 7.44798 3 8.00026 3ZM6.65822 7C6.92421 8.41424 7.37395 9.52718 8.00023 10.4013C8.62654 9.52718 9.07629 8.41425 9.34229 7H6.65822ZM15.157 11.3008C15.8441 9.66894 18.1564 9.66895 18.8435 11.3008L21.9219 18.6119C22.1362 19.1209 21.8973 19.7073 21.3883 19.9216C20.8793 20.1359 20.2929 19.897 20.0786 19.388L19.4942 18H14.5063L13.9219 19.388C13.7076 19.897 13.1212 20.1359 12.6122 19.9216C12.1032 19.7073 11.8643 19.1209 12.0786 18.6119L15.157 11.3008ZM15.3484 16H18.6521L17.0003 12.0769L15.3484 16Z"
    fill="currentColor" />
</svg>

<svg xmlns="http://www.w3.org/2000/svg" width="24" height="24" fill="currentColor" viewBox="0 0 24 24">
  <path  fill-rule="evenodd" d="M8 3a1 1 0 0 1 1 1v1h3a1 1 0 0 1 0 2h-.627c-.313 1.912-.929 3.524-1.936 4.819.751.525 1.674.928 2.806 1.21a1 1 0 0 1-.485 1.941c-1.461-.365-2.717-.928-3.758-1.725-1.04.797-2.296 1.36-3.757 1.725a1 1 0 1 1-.485-1.94c1.131-.283 2.054-.686 2.805-1.211C5.556 10.524 4.94 8.912 4.628 7H4a1 1 0 0 1 0-2h3V4a1 1 0 0 1 1-1ZM6.658 7c.266 1.414.716 2.527 1.342 3.401C8.627 9.527 9.076 8.414 9.342 7H6.658Zm8.499 4.3c.687-1.631 3-1.631 3.686 0l3.079 7.312a1 1 0 0 1-1.843.776L19.494 18h-4.988l-.584 1.388a1 1 0 0 1-1.843-.776l3.078-7.311Zm.191 4.7h3.304L17 12.077 15.348 16Z" clip-rule="evenodd"/>
</svg>
